static/icons/github.svg

<?xml version="1.0" encoding="UTF-8" standalone="no"?>
<!DOCTYPE svg PUBLIC "-//W3C//DTD SVG 1.1//EN" "http://www.w3.org/Graphics/SVG/1.1/DTD/svg11.dtd">
<svg width="100%" height="100%" viewBox="0 0 36 35" version="1.1" xmlns="http://www.w3.org/2000/svg" xmlns:xlink="http://www.w3.org/1999/xlink" xml:space="preserve" xmlns:serif="http://www.serif.com/" style="fill-rule:evenodd;clip-rule:evenodd;stroke-linejoin:round;stroke-miterlimit:2;">
    <path d="M33.2,8.9C31.644,6.199 29.401,3.956 26.7,2.4C23.974,0.797 20.862,-0.033 17.7,0C14.64,0.021 11.638,0.849 9,2.4C6.299,3.956 4.056,6.199 2.5,8.9C0.88,11.587 0.016,14.662 0,17.8C-0.022,21.543 1.172,25.193 3.4,28.2C5.573,31.219 8.658,33.462 12.2,34.6C12.499,34.712 12.833,34.675 13.1,34.5C13.288,34.315 13.396,34.064 13.4,33.8L13.4,30.5L12.8,30.5C12.374,30.609 11.939,30.675 11.5,30.7C10.962,30.677 10.427,30.611 9.9,30.5C9.352,30.386 8.839,30.147 8.4,29.8C7.937,29.441 7.589,28.954 7.4,28.4L7.1,27.8C6.909,27.408 6.674,27.039 6.4,26.7C6.158,26.287 5.813,25.942 5.4,25.7L5.2,25.7C5.088,25.613 4.987,25.512 4.9,25.4C4.82,25.31 4.752,25.209 4.7,25.1L4.8,24.8C5.022,24.711 5.262,24.677 5.5,24.7L6,24.7C6.401,24.83 6.774,25.034 7.1,25.3C7.551,25.613 7.927,26.023 8.2,26.5C8.5,27.101 8.948,27.617 9.5,28C9.939,28.313 10.461,28.487 11,28.5C11.469,28.517 11.938,28.483 12.4,28.4C12.748,28.306 13.083,28.172 13.4,28C13.468,27.094 13.858,26.243 14.5,25.6C13.725,25.524 12.956,25.39 12.2,25.2C11.432,24.994 10.692,24.692 10,24.3C9.238,23.941 8.558,23.431 8,22.8C7.519,22.034 7.18,21.187 7,20.3C6.665,19.198 6.497,18.052 6.5,16.9C6.424,15.093 7.072,13.328 8.3,12C7.715,10.482 7.751,8.792 8.4,7.3C9.081,7.181 9.783,7.286 10.4,7.6C11.089,7.847 11.758,8.148 12.4,8.5L13.4,9.1C16.28,8.313 19.32,8.313 22.2,9.1L23.1,8.5C23.767,8.102 24.47,7.767 25.2,7.5C25.795,7.228 26.462,7.158 27.1,7.3C27.781,8.779 27.853,10.468 27.3,12C28.503,13.303 29.149,15.027 29.1,16.8C29.102,17.952 28.933,19.097 28.6,20.2C28.366,21.103 27.958,21.952 27.4,22.7C26.866,23.315 26.222,23.823 25.5,24.2C24.839,24.583 24.134,24.886 23.4,25.1C22.611,25.295 21.809,25.429 21,25.5C21.874,26.364 22.315,27.576 22.2,28.8L22.2,33.7C22.204,33.964 22.312,34.215 22.5,34.4C22.767,34.575 23.101,34.612 23.4,34.5C26.942,33.362 30.027,31.119 32.2,28.1C34.393,25.081 35.551,21.431 35.5,17.7C35.563,14.547 34.768,11.436 33.2,8.7L33.2,8.9Z" style="fill:rgb(22,36,71);fill-rule:nonzero;"/>
</svg>

<svg xmlns="http://www.w3.org/2000/svg" viewBox="0 0 35.5 34.7"><path fill="#6c63ff" d="M33.2 8.9a17.7 17.7 0 0 0-6.5-6.5 17.4 17.4 0 0 0-9-2.4A17.4 17.4 0 0 0 9 2.4a17.7 17.7 0 0 0-6.5 6.5A17.4 17.4 0 0 0 0 17.8a17.3 17.3 0 0 0 3.4 10.4 17.4 17.4 0 0 0 8.8 6.4 1 1 0 0 0 .9-.1 1 1 0 0 0 .3-.7v-1.3-2h-.6a6.8 6.8 0 0 1-1.3.2 9.8 9.8 0 0 1-1.6-.2 3.6 3.6 0 0 1-1.5-.7 3 3 0 0 1-1-1.4l-.3-.6a5.8 5.8 0 0 0-.7-1.1 2.8 2.8 0 0 0-1-1h-.2a1.7 1.7 0 0 1-.3-.3 1.3 1.3 0 0 1-.2-.3l.1-.3a1.5 1.5 0 0 1 .7-.1H6a3.4 3.4 0 0 1 1.1.6 3.7 3.7 0 0 1 1.1 1.2A4 4 0 0 0 9.5 28a2.7 2.7 0 0 0 1.5.5 6.6 6.6 0 0 0 1.4-.1 4.6 4.6 0 0 0 1-.4 3.8 3.8 0 0 1 1.1-2.4 15.8 15.8 0 0 1-2.3-.4 9.4 9.4 0 0 1-2.2-.9A6.2 6.2 0 0 1 8 22.8 7.5 7.5 0 0 1 7 20.3a11.6 11.6 0 0 1-.5-3.4A6.8 6.8 0 0 1 8.3 12a6.2 6.2 0 0 1 .1-4.7 3.2 3.2 0 0 1 2 .3 14 14 0 0 1 2 .9l1 .6a16.7 16.7 0 0 1 8.8 0l.9-.6a12.5 12.5 0 0 1 2.1-1 3 3 0 0 1 1.9-.2 6.2 6.2 0 0 1 .2 4.7 6.8 6.8 0 0 1 1.8 4.8 11.7 11.7 0 0 1-.5 3.4 7.2 7.2 0 0 1-1.2 2.5 6.5 6.5 0 0 1-1.9 1.5 9.5 9.5 0 0 1-2.1.9 15.8 15.8 0 0 1-2.4.4 4.1 4.1 0 0 1 1.2 3.3v4.9a1 1 0 0 0 .3.7 1 1 0 0 0 .9.1 17.4 17.4 0 0 0 8.8-6.4 17.3 17.3 0 0 0 3.3-10.4 17.4 17.4 0 0 0-2.3-9z" data-name="Path 291"/></svg>
